X:1
T:Title
%%score { ( 1 3 ) | ( 2 4 ) }
L:1/8
M:2/4
K:D
V:1 treble nm="Grand Piano"
V:3 treble 
V:2 bass 
V:4 bass 
V:1
 z2[Q:1/4=100] [FA]2 | [Fd]2 [Fd]2 | [Fd]2 [Gc][CGB] | [DFA]2 [A,EG]2 | [A,DF]2 [A,EG][A,DF] | %5
 [A,E]2 [^G,DE]2 | [A,CE]2 [Ec][EB] | [^Gd]2 z D | [CA]2 [DA][FA] | [Fd]2 [Gd][Gd] | %10
 [Fd]2 [Gc][GB] | [FA]2 [EG]2 | [DF]2 [EG][DF] | [CE]2 [CE][CE] | E2 ^GA | B2 [Ec][DB] | %16
[M:3/8] [CA]3 | [CA]3 |[M:2/4] A2 BB | A2 GF | [A,CE]2 [A,EA][A,EG] | [A,DF]2 [B,DG][A,DF] | %22
 [A,CE]2 [A,CE][A,DF] | [A,EG]2 .[A,EA]2 | z2 .[EG]2 |[M:3/4] [A,CE]3 [CA]3 | %26
[M:2/4] [DA]2 [CA][CA] | A2 BA | [CA]2 [EG][EG] | F2 FG | A2 dB | A2 GF | [CE]2 [CA]2 | %33
[M:1/4] D2 |] %34
V:2
 z2 [D,D]2 | [D,D]2 [D,A,]2 | [D,A,]2 [D,B,]D, | D,2 D,2 | D,2 C,D, | C,2 B,,2 | %6
 A,,2 [E,A,][E,^G,] | [E,B,]2 .[E,B,E]2 | [A,,A,]2 [D,F,][D,A,] | [D,D]2 [D,B,][D,B,] | %10
 [D,A,]2 [D,B,][D,C] | [D,D]2 [D,A,]2 | [D,A,]2 [C,A,][D,A,] | [A,,A,]2 [A,,A,][A,,A,] | %14
 [E,^G,D]2 [B,D][CE] | [E,^G,E]2 [E,A,][E,G,] |[M:3/8] [A,,A,]3 | [A,,G,]3 | %18
[M:2/4] [D,F,D]2 [D,G,D][D,G,D] | [D,F,D]2 B,A, | A,,2 C,C, | D,2 D,D, | A,,2 A,,A,, | C,2 z G | %24
 D,2 C,D, |[M:3/4] A,,3 [A,,G,]3 |[M:2/4] [D,F,]2 [A,,E,][A,,E,] | [D,F,D]2 [D,D]-[D,F,D] | %28
 [A,,E,]2 [C,A,][C,A,] | [D,A,D]2 [D,A,D][E,A,C] | [F,A,D]2 [G,B,D][G,D] | [D,F,D]2 [E,E][F,D] | %32
 [A,,A,]2 [A,,G,]2 |[M:1/4] [D,F,]2 |] %34
V:3
 x4 | x4 | x4 | x4 | x4 | x4 | x4 | z2 ^G2 | x4 | x4 | x4 | x4 | x4 | x4 | x4 | x4 |[M:3/8] x3 | %17
 x3 |[M:2/4] x4 | x4 | x4 | x4 | x4 | x4 | [A,DF]2 A,-[A,DF] |[M:3/4] x6 |[M:2/4] x4 | x4 | x4 | %29
 x4 | x4 | x4 | x4 |[M:1/4] x2 |] %34
V:4
 x4 | x4 | x4 | x4 | x4 | x4 | x4 | x4 | x4 | x4 | x4 | x4 | x4 | x4 | z2 E,2 | x4 |[M:3/8] x3 | %17
 x3 |[M:2/4] x4 | z2 [D,D]2 | x4 | x4 | x4 | z2 C,2 | x4 |[M:3/4] x6 |[M:2/4] x4 | z2 .G,2 | x4 | %29
 x4 | x4 | z2 A,2 | x4 |[M:1/4] x2 |] %34

